!!!!SEGMENT: pl-sa--548-a-ix-28--003_anonim--allegro.krn
!!!id: 18xx:426
!!!COM: Anonim
!!!COM-rism: pe30004985
!!!CDT:
!!!CNT:
!!!OTL: Allegro
!!!PDT:
!!!SMS-siglum: PL-SA
!!!SMS-shelfmark: 548/A IX 28
!!!NIFC-rismID: 1001068949
!!!URL-scan: http://bc.bdsandomierz.pl/dlibra/publication/1440/edition/1408/content
!!!ONB-nifc: Str. 5 (s. 3) – str. 7
!!!SMS-variant:
!!!SMS-altvar:
**kern	**kern
*part1	*part1
*staff2	*staff1
*I"Piano	*
*I'P-no	*
*clefF4	*clefG2
*k[]	*k[]
*M4/4	*M4/4
*met(c)	*met(c)
4r	8cc\L 8ee
.	8dd\J 8ff
=1	=1
4C/	2.ee\ 2.gg
4c\	.
4c\	.
4r	8ff\L 8aa
.	8dd\J 8bb
=2	=2
!	!LO:N:vis=2
4C/	2.ee\ 2.ccc
4c\	.
4c\	.
4r	4r
=3	=3
4GG/	8dd\L 8ff
.	8cc\ 8ee
4G\	8dd\ 8ff
.	8ee\J 8gg
4G\	4dd\ 4ff
4G\	4cc\ 4ee
=4	=4
4GG/	4b\ 4dd
4G\	4b\ 4gg
4G\	4g/
4r	8cc\L 8ee
.	8dd\J 8ff
=5	=5
4C/	2.ee\ 2.gg
4c\	.
4c\	.
4r	8ff\L 8aa
.	8dd\J 8bb
=6	=6
4C/	2.ee\ 2.ccc
4c\	.
4c\	.
4r	4r
=7	=7
4GG/	8dd\L 8ff
.	8cc\ 8ee
4G\	8dd\ 8ff
.	8ee\J 8gg
4G\	4dd\ 4ff
4G\	4cc\ 4ee
!!LO:LB:g=original
=8	=8
4GG/	4b\ 4dd
4G\	4b\ 4gg
4G\	4g/
8G\L	8g/L
8G\J	8g/J
=9	=9
4F\	4f/
4G\	4g/
4D\	4d/
4G\	8.b/L
.	32a/LL
.	32b/JJJ
=10	=10
4E\	4cc\
4G\	4cc\
4C/	4r
4G\	8.cc\L
.	32b\LL
.	32cc\JJJ
=11	=11
4D\	4.ff\
4G\	.
.	8ee\
4BB/	8dd\L
.	8cc\
4G\	8b\
.	8a\J
=12	=12
4C/	4g/
4G\	4gg\
4GG/	4g/
8G\L	8g/L
8G\J	8g/J
=13	=13
*	*^
4F\	4f/	2.ryy
4G\	4g/	.
4D\	4d/	.
4G\	8.b\L	4b/
.	32a\LL	.
.	32b\JJJ	.
*	*v	*v
=14	=14
4E\	4cc\
4G\	4cc\
4C/	4r
4G\	8.cc\L
.	32b\LL
.	32cc\JJJ
!!LO:LB:g=original
=15	=15
!	!LO:N:vis=4
4D\	4.ff\
4G\	.
.	8ee\
4G\	8dd\L
.	8cc\
4G\	8b\
.	8a\J
=16	=16
!	!LO:N:vis=4
4C/	8cc\
.	8r
4c\	8f/L 8a
.	8g/J 8b
4C/	8a\ 8cc
.	8r
4c\	8a\L 8cc
.	8b\J 8dd
=17	=17
4C/	8cc\ 8ee
.	8r
4c\	8f/L 8a
.	8g/J 8b
4c\	8a\ 8cc
.	8r
4c\	8a\L 8cc
.	8b\J 8dd
=18	=18
4C/	8cc\ 8ee
.	8r
4c\	8cc\L 8ee
.	8cc\J 8ee
4FF/	8b\L 8dd
.	8a\ 8cc
4F\	8g\ 8b
.	8f\J 8a
=19	=19
4GG/	4e/ 4g
4G\	8e/L 8g
.	8e/J 8g
4GG/	4d/ 4f 4b
4G\	4d/ 4f 4b
=20	=20
4C/	8e/ 8cc
.	8r
4c\	8ff\L 8aa
.	8gg\J 8bb
4C/	8aa\ 8ccc
.	8r
4c\	8aa\L 8ccc
.	8bb\J 8ddd
!!LO:PB:g=original
=21	=21
4C/	8ccc\ 8eee
.	8r
4c\	8ff\L 8aa
.	8gg\J 8bb
4C/	8aa\ 8ccc
.	8r
4c\	8aa\L 8ccc
.	8bb\J 8ddd
=22	=22
4C/	8ccc\ 8eee
.	8r
4c\	8ccc\L 8eee
.	8ccc\J 8eee
4FF/	8bb\L 8ddd
.	8aa\ 8ccc
4F\	8gg\ 8bb
.	8ff\J 8aa
=23	=23
4GG/	8ee\ 8gg
.	8r
4G\	8ee\L 8gg
.	8ee\J 8gg
4GG/	4dd\ 4ff 4bb
4G\	4dd\ 4ff 4bb
=24	=24
4E\ 4c	4ee\ 4ccc
4r	4r
=25	=25
*	*^
!	!LO:N:vis=2	!
2.c\	2.aa-X/	4cc\
.	.	8b\L
.	.	8cc\J
.	.	8b\L
.	.	8cc\
4B-X\	4gg/	8b\
.	.	8cc\J
=26	=26	=26
4A-X\	4ff/	4cc\
4r	4ryy	8cc\L
.	.	8cc\J
2r	2ryy	8cc\L
.	.	8cc\
.	.	8cc\
.	.	8cc\J
*	*v	*v
=27	=27
4A-X\ 4B-X 4d-X	4ee-X\
4r	8ee-\L
.	8ee-\J
2r	8ee-\L
.	8ee-\
.	8ee-\
.	8ee-\J
!!LO:LB:g=original
=28	=28
4A-X\ 4c	4aa-X\
4r	8cc\L
.	8cc\J
2r	8cc\L
.	8cc\
.	8cc\
.	8cc\J
=29	=29
4A-X\ 4B-X 4d-X	4ee-X\
4r	8ee-\L
.	8ee-\J
2r	8ee-\L
.	8ee-\
.	8ee-\
.	8ee-\J
=30	=30
4A-X\ 4c	4aa-X\
4r	8aa-\L
.	8aa-\J
4A-\ 4d-X 4f	4aa-\
4r	8dd-X\L
.	8dd-\J
=31	=31
4A-X\ 4c 4e-X	4cc\
4r	8aa-X\L
.	8aa-\J
!	!LO:SIC:s=:v:aa-
4A-\ 4c 4e-	4gg\
4r	8cc\L
.	8cc\J
=32	=32
4A-X\ 4e-X	4cc\
4r	8f#X/L
.	8f#/J
2r	4f#/
.	8cc\L
.	8cc\J
=33	=33
8G\L	8b/L
8B\	8g/
8G\	8f#X/
8B\J	8g/J
*rep	*
8G\L	8f#/L
8B\	8g/
8G\	8f#/
8B\J	8g/J
*Xrep	*
=34	=34
8G\L	8a-X/L
8c\	8a-/
8G\	8g/
8c\J	8a-/J
*rep	*
8G\L	8g/L
8c\	8a-/
8G\	8g/
8c\J	8a-/J
*Xrep	*
!!LO:LB:g=original
=35	=35
8G\L	8an/L
8c\	8a/
8G\	8g/
8c\J	8a/J
8G\L	8b-X/L
8c#X\	8b-/
8G\	8a/
8c#\J	8b-/J
=36	=36
4G\ 4d	8bn\L
.	8dd\
4r	8cc#X\
.	8dd\J
2r	4gg\
.	8ccn\L 8ee
.	8dd\J 8ff
=37	=37
4C/	2.ee\ 2.gg
4c\	.
4C/	.
4r	8ff\L 8aa
.	8dd\J 8bb
=38	=38
4C/	2.ee\ 2.ccc
4c\	.
4C/	.
4r	8ee\L 8ccc
.	8ee\J 8ccc
=39	=39
4GG/	8ff\L 8ddd
.	8ee\ 8ccc
4G\	8ff\ 8ddd
.	8gg\J 8eee
4GG/	4ff\ 4ddd
4G\	4ee\ 4ccc
=40	=40
4GG/	4dd\ 4bb
4G\	4b\ 4gg
4GG/	4g/
4r	8cc\L 8ee
.	8dd\J 8ff
=41	=41
4C/	2.ee\ 2.gg
4c\	.
4C/	.
4r	8ff\L 8aa
.	8dd\J 8bb
!!LO:LB:g=original
=42	=42
4C/	2.ee\ 2.ccc
4c\	.
4C/	.
4r	8ee\L 8ccc
.	8ee\J 8ccc
=43	=43
4GG/	8ff\L 8ddd
.	8ee\ 8ccc
4G\	8ff\ 8ddd
.	8gg\J 8eee
4GG/	4ff\ 4ddd
4G\	4ee\ 4ccc
=44	=44
4GG/	4dd\ 4ddd
4G\	4b\ 4gg
4GG/	4g/
8G\L	8g/L
8G\J	8g/J
=45	=45
4F\	4f/
4G\	4g/
4D\	4d/
4G\	8.g/L
.	32f#X/LL
.	32g/JJJ
=46	=46
4E\	4cc\
4G\	4cc\
4C/	4r
4G\	8.cc\L
.	32b\LL
.	32cc\JJJ
=47	=47
4BB/ 4D	4.ff\
4G\	.
.	8ee\
4BB/ 4D	8dd\L
.	8cc\
4G\	8b\
.	8a\J
!!LO:LB:g=original
=48	=48
4C\ 4E	4g/
4G\	8gg\L
.	8gg\J
4GG/	4gg\
!	!LO:N:vis=4
8G\L	8g/L
!	!LO:N:vis=4
8G\J	8g/J
=49	=49
4F\	4f/
4G\	4g/
4D\	4d/
!	!LO:N:vis=8
4G\	8.g/L
.	32f#X/LL
.	32g/JJJ
=50	=50
4E\	4cc\
4G\	4cc\
4C/	4r
4G\	8.cc\L
.	32b\LL
.	32cc\JJJ
=51	=51
4BB/ 4D	4.ff\
4G\	.
.	8ee\
4BB/ 4D	8dd\L
.	8cc\
4G\	8b\
.	8cc\J
=52	=52
!	!LO:N:vis=4
4C/	8cc\
.	8r
4c\	8a\L 8cc
.	8g\J 8b
4C/	8f\ 8a
.	8r
4c\	8a\L 8cc
.	8b\J 8dd
=53	=53
!	!LO:N:vis=4
4C/	8cc\ 8ee
.	8r
4c\	8a\L 8cc
.	8g\J 8b
!	!LO:N:vis=4.
4C/	8f\ 8a
.	8r
4c\	8a\L 8cc
.	8b\J 8dd
=54	=54
!	!LO:N:vis=4
4C/	8cc\ 8ee
.	8r
4c\	8cc\L 8ee
.	8cc\J 8ee
4F\	8b\L 8dd
.	8a\ 8cc
4FF/	8g\ 8b
.	8f\J 8a
!!LO:PB:g=original
=55	=55
4GG/	4e/ 4g
4G\	8e/L 8g
.	8e/J 8g
4GG/	4d/ 4f 4b
4G\	4d/ 4f 4b
=56	=56
4C\ 4E	8cc\
.	8r
4c\	8a\L 8cc
.	8g\J 8b
4C/	8f\ 8a
.	8r
4c\	8a\L 8cc
.	8b\J 8dd
=57	=57
*rep	*
4C\ 4E	8cc\ 8ee
.	8r
4c\	8a\L 8cc
.	8g\J 8b
4C/	8f\ 8a
.	8r
4c\	8a\L 8cc
.	8b\J 8dd
*Xrep	*
=||58	=58
4C/	8cc\ 8ee
.	8r
4c\	8cc\L 8ee
.	8cc\J 8ee
4F\	8b\L 8dd
.	8a\ 8cc
4FF/	8g\ 8b
.	8f\J 8a
=59	=59
4GG/	4e/ 4g
4G\	8e/L 8g
.	8e/J 8g
4GG/	4d/ 4f 4b
4G\	4d/ 4f 4b
=60	=60
4C/	2cc\ 2ee
8c\L	.
8c\J	.
4F\	8b\L 8dd
.	8a\ 8cc
4FF/	8g\ 8b
.	8f\J 8a
!!LO:LB:g=original
=61	=61
4G\	4e/ 4g
8G\L	8e/L 8g
8G\J	8e/J 8g
4G\	4d/ 4b
4G\	4g/
=62	=62
4C/	8cc\L 8ee
.	8g\
4C/	8cc\ 8ee
.	8g\J
*	*rep
4C/	8cc\L 8ee
.	8g\
4C/	8cc\ 8ee
.	8g\J
*	*Xrep
=63	=63
4F\	8b\L 8dd
.	8cc\ 8ee
4F\	8b\ 8dd
.	8a\J 8cc
4FF/	8g\L 8b
.	8a\ 8cc
4FF/	8g\ 8b
.	8f\J 8a
=64	=64
4GG/	8e/L 8g
.	8d/
4G\	8e/ 8g
.	8d/J
4E\	8g/L 8cc
.	8e/
4C/	8g/ 8cc
.	8e/J
=65	=65
4GG/	8cc\L 8ee
.	8g\
4GG/	8cc\ 8ee
.	8g\J
4G\	8b\L 8dd
.	8g\
4G\	8b\ 8gg
.	8g\J
=66	=66
4C\ 4G	4cc\
4C\ 4G	4g\ 4cc 4ee
4G\	4g\ 4cc 4ee
4G\	4a\ 4cc 4ee
!!LO:LB:g=original
=67	=67
4C\ 4E 4G	4g\ 4cc 4ee
4C\ 4E 4G	4g\ 4cc 4ee
4G\	4g\ 4b 4dd
4G\	4g\ 4b 4dd
=68	=68
4C\ 4G	4g\ 4cc 4ee
4C\ 4G	4g\ 4cc 4ee
4G\	4g\ 4b 4dd
4A\	4g\ 4b 4dd
=69	=69
4C\ 4E 4G	4g\ 4cc 4ee
4C\ 4E 4G	4g\ 4cc 4ee
4G\	4g\ 4b 4dd
4G\	4g\ 4b 4dd
=70	=70
4C/	8e/ 8cc
.	8r
!	!LO:SIC:s=:v:ee
4c\	8cc\L 8ff
.	8cc\J 8ee
4C/	8b\L 8dd
.	8a\ 8cc
4c\	8g\ 8b
.	8f\J 8a
=71	=71
*rep	*
4C/	8e/ 8g
.	8r
4c\	8cc\L 8ee
.	8cc\J 8ee
4C/	8b\L 8dd
.	8a\ 8cc
4c\	8g\ 8b
.	8f\J 8a
*Xrep	*
=72	=72
*rep	*
4C/	8e/ 8g
.	8r
4c\	8cc\L 8ee
.	8cc\J 8ee
4C/	8b\L 8dd
.	8a\ 8cc
4c\	8g\ 8b
.	8f\J 8a
*Xrep	*
!!LO:LB:g=original
=73	=73
4C/	4e/ 4g
4c\	4g\ 4cc 4ee
4G\	4g\ 4cc 4ee
4GG/	4b\ 4gg
=74	=74
4C/	4e/ 4cc
4c\	4e/ 4cc
4G\	4e/ 4cc
4E\	4e/ 4cc
=75	=75
4C/	4e/ 4cc
4r	4r
4C\ 4E 4G	4g\ 4cc 4ee
4r	4r
=76	=76
4C\ 4E 4G	4c/
4r	4r
2r	2r
==	==
*-	*-
!!!system-decoration:s1,s2
!!!EED: Leszek Kubiak
!!!EST: 2020-11-23
!!!ENC: Marcin Jachim
!!!END: 2020-06-14
